icons/tabBackgroundStart.svg

<?xml version="1.0" encoding="UTF-8" standalone="no"?>
<svg
   xmlns:dc="http://purl.org/dc/elements/1.1/"
   xmlns:cc="http://creativecommons.org/ns#"
   xmlns:rdf="http://www.w3.org/1999/02/22-rdf-syntax-ns#"
   xmlns:svg="http://www.w3.org/2000/svg"
   xmlns="http://www.w3.org/2000/svg"
   xmlns:xlink="http://www.w3.org/1999/xlink"
   xmlns:sodipodi="http://sodipodi.sourceforge.net/DTD/sodipodi-0.dtd"
   xmlns:inkscape="http://www.inkscape.org/namespaces/inkscape"
   version="1.1"
   id="tabActive"
   x="0px"
   y="0px"
   width="43"
   height="45"
   viewBox="0 0 43 45"
   xml:space="preserve"
   inkscape:version="0.48.4 r9939"
   sodipodi:docname="tabBackgroundStart.svg"><metadata
     id="metadata11"><rdf:RDF><cc:Work
         rdf:about=""><dc:format>image/svg+xml</dc:format><dc:type
           rdf:resource="http://purl.org/dc/dcmitype/StillImage" /><dc:title></dc:title></cc:Work></rdf:RDF></metadata><sodipodi:namedview
     pagecolor="#ffffff"
     bordercolor="#666666"
     borderopacity="1"
     objecttolerance="10"
     gridtolerance="10"
     guidetolerance="10"
     inkscape:pageopacity="0"
     inkscape:pageshadow="2"
     inkscape:window-width="1440"
     inkscape:window-height="861"
     id="namedview9"
     showgrid="false"
     inkscape:zoom="3.8064516"
     inkscape:cx="25.888852"
     inkscape:cy="72.579168"
     inkscape:window-x="1920"
     inkscape:window-y="18"
     inkscape:window-maximized="0"
     inkscape:current-layer="tabActive" /><defs
     id="toolbarGlyphDEFS"><linearGradient
       id="linearGradient3787"><stop
         style="stop-color:#ffffff;stop-opacity:0.2937063;"
         offset="0"
         id="stop3789" /><stop
         style="stop-color:#ffffff;stop-opacity:0;"
         offset="1"
         id="stop3791" /></linearGradient><linearGradient
       id="linearGradient3754"><stop
         style="stop-color:#ffffff;stop-opacity:1;"
         offset="0"
         id="stop3756" /><stop
         style="stop-color:#000000;stop-opacity:0;"
         offset="1"
         id="stop3758" /></linearGradient><linearGradient
       id="glyphGradientOverlay"
       x1="0.33616686"
       y1="2.0278621"
       x2="0.33616686"
       y2="31.353477"
       gradientTransform="matrix(1.4547009,0,0,1.4220855,-0.14902225,0.41267743)"
       gradientUnits="userSpaceOnUse"><stop
         id="transparentStop"
         style="stop-color:#ffffff;stop-opacity:.9"
         offset="0" /><stop
         id="translucentStop"
         style="stop-color:#ffffff;stop-opacity:.6"
         offset="1" /></linearGradient><linearGradient
       inkscape:collect="always"
       xlink:href="#linearGradient3787"
       id="linearGradient3793"
       x1="33.855057"
       y1="-19.212753"
       x2="33.855057"
       y2="59.23217"
       gradientUnits="userSpaceOnUse" /><linearGradient
       inkscape:collect="always"
       xlink:href="#linearGradient3787"
       id="linearGradient3818"
       gradientUnits="userSpaceOnUse"
       x1="35.712711"
       y1="3.0409636"
       x2="35.712711"
       y2="43.62788" /></defs><path
     style="fill-opacity:1"
     d="M 43 3.28125 C 24.372567 3.4236417 22.152736 17.207419 20.71875 24.875 C 18.46781 36.922207 14.578985 44.0625 2.03125 44.0625 L 1.90625 44.15625 L 2.03125 44.15625 C 3.599717 44.15625 5.0267969 44.063103 6.34375 43.84375 C 7.6607031 43.624397 8.8461675 43.273567 9.9375 42.84375 C 11.028833 42.413933 12.014645 41.88139 12.90625 41.25 C 13.797855 40.61861 14.594729 39.917822 15.3125 39.09375 C 16.030271 38.269678 16.68017 37.351615 17.25 36.34375 C 17.81983 35.335885 18.333467 34.214017 18.78125 33.03125 C 19.676816 30.665716 20.343515 27.980552 20.90625 24.96875 C 21.264747 23.051855 21.674503 20.74523 22.375 18.375 C 22.725249 17.189885 23.160177 15.995491 23.6875 14.8125 C 24.214823 13.629509 24.828304 12.447646 25.59375 11.34375 C 26.359196 10.239854 27.279132 9.197829 28.34375 8.25 C 29.408368 7.302171 30.637661 6.4647905 32.0625 5.75 C 33.487339 5.0352095 35.09139 4.4360305 36.9375 4.03125 C 38.727872 3.6386907 40.75686 3.4359355 43 3.40625 L 43 3.28125 z "
     id="tabActiveStartBASE" /><path
     sodipodi:nodetypes="ccccccc"
     inkscape:connector-curvature="0"
     style="fill:url(#linearGradient3793);fill-opacity:1"
     id="path3764"
     d="M 43.329089,3.285617 C 24.701656,3.428008 22.485235,17.185355 21.051249,24.852936 18.800309,36.900143 14.715309,44.061699 2.167573,44.061699 L 0.3734,44.084229 0.344,45.5 43.32909,44.989145 z" /><path
     d="M 43.329089,3.285617 C 24.701656,3.428008 22.485235,17.185355 21.051249,24.852936 18.800309,36.900143 14.715309,44.061699 2.167573,44.061699 L 0.3734,44.084229 0.344,45.5 43.32909,44.989145 z"
     id="path3816"
     style="fill:url(#linearGradient3818);fill-opacity:1"
     inkscape:connector-curvature="0"
     sodipodi:nodetypes="ccccccc" /></svg>

<svg xmlns="http://www.w3.org/2000/svg" xmlns:xlink="http://www.w3.org/1999/xlink" width="43" height="45" viewBox="0 0 43 45"><defs><linearGradient id="a"><stop offset="0" stop-color="#fff" stop-opacity=".294"/><stop offset="1" stop-color="#fff" stop-opacity="0"/></linearGradient><linearGradient><stop offset="0" stop-color="#fff"/><stop offset="1" stop-opacity="0"/></linearGradient><linearGradient x1=".336" y1="2.028" x2=".336" y2="31.353" gradientTransform="matrix(1.455 0 0 1.422 -.149 .413)" gradientUnits="userSpaceOnUse"><stop offset="0" stop-color="#fff" stop-opacity=".9"/><stop offset="1" stop-color="#fff" stop-opacity=".6"/></linearGradient><linearGradient xlink:href="#a" id="b" x1="33.855" y1="-19.213" x2="33.855" y2="59.232" gradientUnits="userSpaceOnUse"/><linearGradient xlink:href="#a" id="c" gradientUnits="userSpaceOnUse" x1="35.713" y1="3.041" x2="35.713" y2="43.628"/></defs><path d="M43 3.28c-18.627.144-20.847 13.927-22.28 21.595-2.252 12.047-6.14 19.188-18.69 19.188l-.124.093h.125c1.57 0 2.997-.093 4.314-.312 1.317-.22 2.502-.57 3.593-1 1.092-.43 2.078-.963 2.97-1.594.89-.63 1.688-1.332 2.405-2.156.718-.824 1.368-1.742 1.938-2.75.57-1.008 1.083-2.13 1.53-3.313.897-2.364 1.564-5.05 2.126-8.06.36-1.918.77-4.225 1.47-6.595.35-1.185.784-2.38 1.31-3.563.53-1.182 1.142-2.364 1.908-3.468.765-1.104 1.685-2.146 2.75-3.094 1.064-.948 2.294-1.785 3.718-2.5 1.425-.715 3.03-1.314 4.876-1.72 1.79-.39 3.82-.594 6.062-.624V3.28z"/><path d="M43.33 3.286c-18.628.142-20.845 13.9-22.28 21.567C18.8 36.9 14.716 44.063 2.17 44.063l-1.795.02-.03 1.417 42.986-.51z" fill="url(#b)"/><path d="M43.33 3.286c-18.628.142-20.845 13.9-22.28 21.567C18.8 36.9 14.716 44.063 2.17 44.063l-1.795.02-.03 1.417 42.986-.51z" fill="url(#c)"/></svg>
